optimized/zarrinpal-color.svg

<svg xmlns="http://www.w3.org/2000/svg" fill="none" viewBox="0 0 40 40">
  <path fill="url(#a)" d="M18.2099 3.4915c.3978-.98403 1.3609-1.62784 2.4235-1.62784h16.76C38.8276 1.85319 39.9948 3.00995 40 4.44413c0 .33499-.0628.66475-.1832.97357L26.9825 37.2732c-.3978.9893-1.3609 1.6331-2.4235 1.6279H7.79903c-1.43418.0052-2.60141-1.1463-2.60665-2.5805 0-.335.06281-.6647.1832-.9736L18.2099 3.4915Z"/>
  <path fill="#0A33FF" d="M11.1123 24.0882c6.1397 0 11.1122-4.9778 11.1122-11.1123 0-6.1345-4.9725-11.11225-11.1122-11.11225C4.97252 1.86365 0 6.8414 0 12.9759c0 6.1398 4.97252 11.1123 11.1123 11.1123Z"/>
  <path fill="url(#b)" d="M22.2245 12.9759c0 6.1398-4.9882 11.1175-11.1279 11.1123-.3874 0-.7747-.0209-1.16203-.0628L17.9272 4.19812c2.7166 2.10416 4.3026 5.34415 4.2973 8.77778Z"/>
  <defs>
    <linearGradient id="a" x1="29.5734" x2="15.5771" y1="1.89506" y2="38.9848" gradientUnits="userSpaceOnUse">
      <stop stop-color="#FFD60A"/>
      <stop offset="1" stop-color="#F5BE09"/>
    </linearGradient>
    <linearGradient id="b" x1="21.6383" x2="13.698" y1="5.73175" y2="25.5119" gradientUnits="userSpaceOnUse">
      <stop stop-color="#051A80"/>
      <stop offset="1" stop-color="#0A33FF"/>
    </linearGradient>
  </defs>
</svg>

<svg width="40" height="40" viewBox="0 0 40 40" fill="none" xmlns="http://www.w3.org/2000/svg">
<path d="M18.2099 3.4915C18.6077 2.50747 19.5708 1.86366 20.6334 1.86366H37.3934C38.8276 1.85319 39.9948 3.00995 40 4.44413C40 4.77912 39.9372 5.10888 39.8168 5.4177L26.9825 37.2732C26.5847 38.2625 25.6216 38.9063 24.559 38.9011H7.79903C6.36485 38.9063 5.19762 37.7548 5.19238 36.3206C5.19238 35.9856 5.25519 35.6559 5.37558 35.347L18.2099 3.4915Z" fill="url(#paint0_linear_304_312)"/>
<path d="M11.1123 24.0882C17.252 24.0882 22.2245 19.1104 22.2245 12.9759C22.2245 6.8414 17.252 1.86365 11.1123 1.86365C4.97252 1.86365 0 6.8414 0 12.9759C0 19.1157 4.97252 24.0882 11.1123 24.0882Z" fill="#0A33FF"/>
<path d="M22.2245 12.9759C22.2245 19.1157 17.2363 24.0934 11.0966 24.0882C10.7092 24.0882 10.3219 24.0673 9.93457 24.0254L17.9272 4.19812C20.6438 6.30228 22.2298 9.54227 22.2245 12.9759Z" fill="url(#paint1_linear_304_312)"/>
<defs>
<linearGradient id="paint0_linear_304_312" x1="29.5734" y1="1.89506" x2="15.5771" y2="38.9848" gradientUnits="userSpaceOnUse">
<stop stop-color="#FFD60A"/>
<stop offset="1" stop-color="#F5BE09"/>
</linearGradient>
<linearGradient id="paint1_linear_304_312" x1="21.6383" y1="5.73175" x2="13.698" y2="25.5119" gradientUnits="userSpaceOnUse">
<stop stop-color="#051A80"/>
<stop offset="1" stop-color="#0A33FF"/>
</linearGradient>
</defs>
</svg>
